static/logos/upwork-glyph-color.svg

<svg width="50" height="32" viewBox="0 0 50 32" fill="none" xmlns="http://www.w3.org/2000/svg">
<g clip-path="url(#clip0_1_544)">
<path d="M38.0836 18.9996C36.671 18.921 35.2979 18.5043 34.0798 17.7847C32.8617 17.0651 31.8341 16.0637 31.0836 14.8645C31.989 7.64825 34.6241 5.40501 38.1106 5.40501C41.5971 5.40501 44.2457 8.10771 44.2457 12.1618C44.2457 16.2158 41.543 18.9185 38.1106 18.9185L38.0836 18.9996ZM38.1106 0.891489C35.6501 0.791785 33.2329 1.56002 31.2814 3.0619C29.3301 4.56377 27.9684 6.70374 27.4349 9.10771C26.2782 6.68416 25.403 4.13599 24.8268 1.51312H16.2187V12.1888C16.2187 16.0672 14.4619 18.9455 11.016 18.9455C7.57002 18.9455 5.61056 16.0807 5.61056 12.1888V1.51312H0.664624V12.1888C0.552374 15.1472 1.57205 18.037 3.51597 20.2699C4.46481 21.303 5.62388 22.121 6.91521 22.6687C8.20654 23.2165 9.60021 23.4814 11.0025 23.4456C16.9619 23.4456 21.1376 18.8645 21.1376 12.3104V5.0942C22.1496 8.97731 23.8228 12.6572 26.0836 15.9726L23.4349 31.0807H28.4619L30.2052 20.378C30.7822 20.8749 31.3967 21.3266 32.043 21.7293C33.7223 22.79 35.6526 23.3868 37.6376 23.4591H38.0971C39.5736 23.4745 41.038 23.1908 42.4021 22.6254C43.7663 22.06 45.0018 21.2245 46.0345 20.1689C47.0672 19.1135 47.8757 17.86 48.4114 16.4839C48.9469 15.1078 49.1986 13.6376 49.1511 12.1618C49.1856 10.6913 48.9241 9.22894 48.3821 7.86156C47.8402 6.49418 47.0288 5.24972 45.9964 4.20214C44.964 3.15455 43.7314 2.32522 42.3721 1.76345C41.0128 1.20169 39.5544 0.918946 38.0836 0.93203" fill="#149E00"/>
</g>
<defs>
<clipPath id="clip0_1_544">
<rect width="50" height="31.0811" fill="white"/>
</clipPath>
</defs>
</svg>

<svg xmlns="http://www.w3.org/2000/svg" width="100" height="64" fill="none" viewBox="0 0 50 32"><g clip-path="url(#a)"><path fill="#149E00" d="M38.084 19a8.837 8.837 0 0 1-7-4.136c.905-7.216 3.54-9.459 7.027-9.459 3.486 0 6.135 2.703 6.135 6.757s-2.703 6.757-6.135 6.757l-.027.08ZM38.11.89a10.5 10.5 0 0 0-10.676 8.217 35.134 35.134 0 0 1-2.608-7.595h-8.608V12.19c0 3.878-1.757 6.756-5.203 6.756-3.446 0-5.405-2.864-5.405-6.756V1.513H.665V12.19a11.635 11.635 0 0 0 2.851 8.08 9.824 9.824 0 0 0 7.486 3.177c5.96 0 10.136-4.582 10.136-11.136V5.094a34.957 34.957 0 0 0 4.946 10.879l-2.65 15.108h5.028l1.743-10.703c.577.497 1.192.949 1.838 1.351a11.242 11.242 0 0 0 5.595 1.73h.46A10.945 10.945 0 0 0 49.15 12.162 10.971 10.971 0 0 0 38.084.932"/></g><defs><clipPath id="a"><path fill="#fff" d="M0 0h50v31.081H0z"/></clipPath></defs></svg>
